images_sukapura_svg/cmd/32/forward.svg

<svg height="32" viewBox="0 0 32 32" width="32" xmlns="http://www.w3.org/2000/svg" xmlns:xlink="http://www.w3.org/1999/xlink"><linearGradient id="a" gradientUnits="userSpaceOnUse" x1="-2" x2="-2" y1="56" y2="45"><stop offset="0" stop-color="#f5f5f5"/><stop offset="1" stop-color="#fff"/></linearGradient>



     /&amp;amp;gt;
 <path d="m4 16c-.554 0-1 .446-1 1v11c0 .554.446 1 1 1h14c.554 0 1-.446 1-1v-11c0-.554-.446-1-1-1zm0 1h14v11h-14z" fill="#98989d"/><path d="m4 17h14v11h-14z" fill="url(#a)"/><path d="m10.949219 3c-.5263 0-.949219.4229187-.949219.9492188v11.0507812 4.050781c0 .5263.422919.949219.949219.949219h9.050781 8.050781c.5263 0 .949219-.422919.949219-.949219v-11.050781-4.0507812c0-.5263-.422919-.9492188-.949219-.9492188h-9.050781zm.050781 1h17v15h-17z" fill="#e4b500"/><path d="m11 4h17v15h-17z" fill="#fc0"/></svg>

<?xml version="1.0" encoding="UTF-8" standalone="no"?>
<svg
   xmlns:dc="http://purl.org/dc/elements/1.1/"
   xmlns:cc="http://creativecommons.org/ns#"
   xmlns:rdf="http://www.w3.org/1999/02/22-rdf-syntax-ns#"
   xmlns:svg="http://www.w3.org/2000/svg"
   xmlns="http://www.w3.org/2000/svg"
   xmlns:xlink="http://www.w3.org/1999/xlink"
   xmlns:sodipodi="http://sodipodi.sourceforge.net/DTD/sodipodi-0.dtd"
   xmlns:inkscape="http://www.inkscape.org/namespaces/inkscape"
   viewBox="0 0 32 32"
   version="1.1"
   id="svg12"
   sodipodi:docname="forward.svg"
   inkscape:version="0.92.3 (unknown)"
   inkscape:export-filename="/home/rizmut/Dokumen/Rizmut/Github/libreoffice-style-sukapura/images_sukapura/cmd/32/forward.png"
   inkscape:export-xdpi="96"
   inkscape:export-ydpi="96"
   width="32"
   height="32"><metadata
   id="metadata18">
  <rdf:RDF>
    <cc:Work
       rdf:about="">
      <dc:format>image/svg+xml</dc:format>
      <dc:type
         rdf:resource="http://purl.org/dc/dcmitype/StillImage" />
      <dc:title></dc:title>
    </cc:Work>
  </rdf:RDF>
</metadata>
<defs
   id="defs16">
  <linearGradient
     gradientTransform="translate(-12,28)"
     y2="2"
     y1="16"
     x2="10"
     x1="10"
     gradientUnits="userSpaceOnUse"
     id="linearGradient1639">
    <stop
       id="stop1633"
       stop-color="#f5f5f5"
       offset="0" />
    <stop
       id="stop1637"
       stop-color="#fff"
       offset="1" />
  </linearGradient>
  <linearGradient
     inkscape:collect="always"
     xlink:href="#linearGradient1639"
     id="linearGradient859"
     x1="10"
     y1="28"
     x2="10"
     y2="17"
     gradientUnits="userSpaceOnUse" />
</defs>
<sodipodi:namedview
   pagecolor="#ffffff"
   bordercolor="#666666"
   borderopacity="1"
   objecttolerance="10"
   gridtolerance="10"
   guidetolerance="10"
   inkscape:pageopacity="0"
   inkscape:pageshadow="2"
   inkscape:window-width="1366"
   inkscape:window-height="706"
   id="namedview14"
   showgrid="true"
   inkscape:zoom="5.6568543"
   inkscape:cx="-9.7096164"
   inkscape:cy="13.781889"
   inkscape:window-x="0"
   inkscape:window-y="0"
   inkscape:window-maximized="1"
   inkscape:current-layer="svg12"
   inkscape:snap-global="true">
  <inkscape:grid
     type="xygrid"
     id="grid828"
     spacingx="0.5"
     spacingy="0.5"
     empspacing="2" />
</sodipodi:namedview>



     /&amp;gt;
 <g
   id="g922">
  <g
     id="g914">
    <path
       inkscape:connector-curvature="0"
       style="fill:#98989d;fill-opacity:1"
       d="m 4,16 c -0.554,0 -1,0.446 -1,1 v 11 c 0,0.554 0.446,1 1,1 h 14 c 0.554,0 1,-0.446 1,-1 V 17 c 0,-0.554 -0.446,-1 -1,-1 z m 0,1 H 18 V 28 H 4 Z"
       id="path4" />
    <path
       inkscape:connector-curvature="0"
       style="fill:url(#linearGradient859);fill-opacity:1"
       d="M 4,17 H 18 V 28 H 4 Z"
       id="path6-6" />
  </g>
  <g
     id="g872">
    <path
       style="fill:#e4b500;fill-opacity:1"
       d="M 10.949219 3 C 10.422919 3 10 3.4229187 10 3.9492188 L 10 15 L 10 19.050781 C 10 19.577081 10.422919 20 10.949219 20 L 20 20 L 28.050781 20 C 28.577081 20 29 19.577081 29 19.050781 L 29 8 L 29 3.9492188 C 29 3.4229188 28.577081 3 28.050781 3 L 19 3 L 10.949219 3 z M 11 4 L 28 4 L 28 19 L 11 19 L 11 4 z "
       id="path2-3" />
    <rect
       style="fill:#ffcc00;fill-opacity:1;stroke:none;stroke-opacity:1"
       id="rect864"
       width="17"
       height="15"
       x="11"
       y="4"
       ry="0" />
  </g>
</g>
</svg>
